X:1
T:Stille Nacht
T:Franz Xaver Gruber
T:Partitur
T:Text:  Joseph Mohr
T:Stille Nacht
C:Franz Xaver Gruber
%%score [ 1 2 3 4 ]
L:1/8
Q:1/4=75
M:6/4
K:Bb
V:1 treble transpose=-2 nm="Trompete in B 1" snm="Trp. B. 1"
V:2 treble transpose=-2 nm="Trompete in B 2" snm="Trp. B. 2"
V:3 bass nm="Posaune" snm="Pos."
V:4 bass nm="Tuba" snm="Tub."
V:1
[K:C]!p! (G3 A) G2 E6 | G3 A G2 E6 | d4 d2 B6 | c4 c2 G6 | A4 A2 c3 B A2 | G3 A G2 E6 | %6
 A4 A2 c3 B A2 | G3 A G2 E6 | d4 d2 f3 d B2 | (c6 e6) | c3 G E2 G3 F D2 | C6- C2 z2 z2 |] %12
V:2
[K:C]!p! E3 F E2 C6 | E3 F E2 C6 | F4 F2 (G2 F2 D2) | (C2 E2) G2 E6 | F4 F2 A3 G F2 | E3 F E2 C6 | %6
 F4 F2 A3 G F2 | E3 F E2 C6 | F4 F2 B3 B G2 | (G6- G2 E2 C2) | G3 E C2 B,3 A, B,2 | %11
 G,6- G,2 z2 z2 |] %12
V:3
!p! B,4 B,2 F,6 | B,3 B, B,2 F,6 | A,4 A,2 C6 | (F,2 B,2) D2 B,6 | B,4 B,2 B,3 B, B,2 | %5
 B,3 B, B,2 F,6 | B,4 B,2 B,3 B, B,2 | B,3 B, B,2 (F,2 D2 B,2) | A,4 A,2 C3 C E2 | (D6 B,6) | %10
 F,4 F,2 F,3 E E2 | D6- D2 z2 z2 |] %12
V:4
!p! B,,4 B,,2 B,,6 | B,,3 B,, B,,2 B,,6 | F,,4 F,,2 F,,6 | B,,4 B,,2 (B,,2 C,2 D,2) | %4
 E,4 E,2 E,3 E, E,2 | B,,3 B,, B,,2 (B,,2 C,2 D,2) | E,4 E,2 G,3 F, E,2 | B,,3 B,, B,,2 B,,6 | %8
 F,4 F,2 F,3 F, F,2 | (B,,6- B,,2 D,2 B,,2) | D,4 D,2 F,,3 C, F,,2 | B,,6- B,,2 z2 z2 |] %12

